!!!!SEGMENT: pl-wn--sd-xvi-qu-273--117_gomolka-mikolaj--wszelki-narod-wszelkie-plemie.krn
!!!cenid: 15xx:322
!!!COM: Gomółka, Mikołaj
!!!COM-rismid: pe30013343
!!!CDT: ~1535->1591/04/30
!!!CNT: Polish
!!!GTL: Melodiae na psalterz polski
!!!OTL: CXVII. Wszelki naród, wszelkie plemię,
!!!ONB:Laudate dominum omnes gentes.
!!!PDT: 1580
!!!AGN: Sacred
!!!SMS-siglum: PL-Wn
!!!SMS-shelfmark: SD XVI.Qu.273
!!!SMS-shelfwork: 117 G
!!!NIFC-rismid:
!!!ONB-nifc: Melodiae na psalterz polski
**kern	**text	**kern	**text	**kern	**text	**kern	**text
*part4	*part4	*part3	*part3	*part2	*part2	*part1	*part1
*staff4	*staff4	*staff3	*staff3	*staff2	*staff2	*staff1	*staff1
*clefF4	*	*clefC3	*	*clefC3	*	*clefC1	*
*k[b-]	*	*k[b-]	*	*k[b-]	*	*k[b-]	*
*d:	*	*d:	*	*d:	*	*d:	*
*M4/2	*	*M4/2	*	*M4/2	*	*M4/2	*
*met(C|)	*	*met(C|)	*	*met(C|)	*	*met(C|)	*
=1-	=1-	=1-	=1-	=1-	=1-	=1-	=1-
1D\	Wszelki	1d\	Wszelki	1f\	Wszel-	1a\	Wszelki
2A\	na-	2c/	na-	2e\	-ki	2a\	na-
2A\	-ród,	2c/	-ród,	2e\	na-	2a\	-ród,
=2-	=2-	=2-	=2-	=2-	=2-	=2-	=2-
1F\	wszel-	2.f\	.	1a\	-ród,	1cc\	wszel-
.	.	4e\	wszel-	.	.	.	.
2G\	-kie	2d\	-kie	2g\	wszel-	2b-\	-kie
2A\	.	2c\	ple-	4f\	.	1a\	ple-
.	.	.	.	4e\	-kie	.	.
=3-	=3-	=3-	=3-	=3-	=3-	=3-	=3-
1B-\	ple-	1d\	-mię,	4d\	ple-	.	.
.	.	.	.	4c\	-mię,	.	.
.	.	.	.	2d\	.	2g\	-mię,
2A\	-mię,	2e\	.	2c\	Coś-	2a\	.
2AA/	Coś-	2c/	Coś-	2e\	-cie-	2a\	Coś-
=4-	=4-	=4-	=4-	=4-	=4-	=4-	=4-
2AA/	-cie	2c/	-cie	2e\	.	2a\	-cie
2BB-/	.	2.B-/	.	2.d\	w krąg	2f/	w
1GG/	w krąg	.	.	.	.	1g\	krąg
.	.	4c/	.	4c/	.	.	.
.	.	2d\	w krąg	2B-/	.	.	.
=5-	=5-	=5-	=5-	=5-	=5-	=5-	=5-
2AA/	.	2c/	.	2A/	ob-	2f/	.
2BB-/	ob-	4B-/	ob-	2d\	-sied-	1f/	obsied-
.	.	4A/	-sied-	.	.	.	.
1C/	-siedliście	4G/	-li	2.c/	-li	.	.
.	.	4F/	zie-	.	.	.	.
.	.	2G/	.	.	.	2e/	-li
.	.	.	.	4B-/	zie-	.	.
=6	=6--	=6-	=6-	=6-	=6-	=6-	=6-
2FF/	zie-	2F/	-mię,	2A/	-mię,	2f/	zie-
2F\	-mię Pa-	2c/	Pa-	2f\	Pa-	2a\	-mię, Pa-
!!LO:PB:g=original
2B-\	-ná	2d\	-ná	2f\	-ná	2b-\	.
2G\	ʒ	2B-/	ʒ	2e\	ʒ	4a\	-ná ʒ
.	.	.	.	.	.	4g\	chę-
=7-	=7-	=7-	=7-	=7-	=7-	=7-	=7-
2F\	chę-	2c/	chę-	1f\	chę-	2a\	-ćią
1B-\	-ćią	2.d\	-ćią	.	.	4b-\	wy-
.	.	.	.	.	.	4cc\	-ʒna-
.	.	.	.	2f\	-ćią	2dd\	-way-
.	.	4e\	wyʒna-	.	.	.	.
2A\	wy-	1f\	-way-	2f\	wy-	2cc\	-ćie,
=8-	=8-	=8-	=8-	=8-	=8-	=8-	=8-
1G\	-ʒna-	.	.	2d\	-ʒna-	1b-\	.
.	.	2e\	.	2B-/	-way-	.	.
2F\	-way-	2f\	-ćie,	2c/	.	2a\	Je-
2C/	.	2e\	Je-	2g\	-ćie,	2cc\	-mu
=9-	=9-	=9-	=9-	=9-	=9-	=9-	=9-
2D/	-ćie,	2.d\	-mu	2f\	Je-	2a\	cʒeść,
2BB-/	Je-	.	.	2f\	-mu	2b-\	.
.	.	4c\	.	.	.	.	.
2.E\	-mu	4B-/	cʒeść,	2e-\X	cʒeść,	1g\	y
.	.	4A/	.	.	.	.	.
.	.	2G/	y	2.e-\	y	.	.
4D/	cʒeść,	.	.	.	.	.	.
=10-	=10-	=10-	=10-	=10-	=10-	=10-	=10-
2C/	.	4c/	chwa-	.	.	2f/	chwa-
.	.	4B-/	.	4d\	chwa-	.	.
2D/	y	4A/	-łę	4d\	-łę	1f/	-łę
.	.	8G/L	.	8c/L	.	.	.
.	.	8F/J	.	8B-/J	day-	.	.
1C/	chwa-	1G/	day-	2.c/	.	.	.
.	.	.	.	.	.	2e/	day-
.	.	.	.	4B-/	-ćie.	.	.
=11-	=11-	=11-	=11-	=11-	=11-	=11-	=11-
000FF/	-łę dayćie.	000F/	-ćie.	000A/	.	000f/	-ćie.
==-	==-	==-	==-	==-	==-	==-	==-
*-	*-	*-	*-	*-	*-	*-	*-
!!!RDF**kern: l = terminal long
!!!system-decoration: s1,s2,s3,s4
!!!ENC: Leszek Kubiak
!!!END: data 2020-02-19
!!!URL-scan: https://polona.pl/item/melodiae-na-psalterz-polski,Nzk3MTM4ODQ/271 Scan on Polona
!!!IIIF: https://polona.pl/iiif/item/Nzk3MTM4ODQ/manifest.json
